X: 110
T: No_46_The_Morning_Shines_on_Manasi_Mountain.krn
N: Derived from No_46_The_Morning_Shines_on_Manasi_Mountain.krn
%%abc-version 2.0
%%abcx-abcm2ps-target-version 5.9.1 (29 Sep 2008)
%%abc-creator hum2abc beta
%%abcx-conversion-date 2019/03/15 08:37:56
%%humdrum-veritas 3658849453
%%humdrum-veritas-data 485124895
%%linebreak <none>
%%barnumbers 0
L: 1/8
M: 3/4
K: G clef=bass
[K:clef=bass][M:3/4]E,2E,2F,2 | 
G,E,F,2F,3/B,,/ ||  
[M:2/4]E,2D,3/B,,/ | 
E,E, E,E, | 
E,2z2 | 
E,2E,2 | 
G,2G,3/E,/ | 
F,2F,3/B,,/ | 
E,3/E,/ E, z | 
E,3/D,/E,2 | 
E,2E, z | 
E,2E,2 | 
G,2G,3/E,/ | 
F,2F,3/D,/ | 
E,3/E,/D,2 | 
D,2B,, z | 
E,3/E,/ E,3/E,/ | 
(3G,G,G, G,3/G,/ | 
G,3/F,/ F,F,/E,/ | 
F,3/E,/ E,3/D,/ | 
E,3/D,/ E,3/E,/ | 
(3F,E,D, (3E,D,D, | 
D,2B,, z | 
D,3/D,/ D,3/D,/ | 
G,2(3G,F,E, | 
F,2(3F,E,D, | 
E,3/D,/ D,3/B,,// z// | 
E,3/E,/ D,3/B,,/ | 
(3E,E,E, E,3/E,/ | 
D,3/D,/ E,3/E,/ | 
(3D,D,D, E,3/E,/ | 
D,4 |]  



